!!!OTL: ES KAM EIN ABENTEURER
!!!ARE: Europa, Mitteleuropa, Deutschland
!!!SCT: E0180
!!!YEM: Copyright 1995, estate of Helmut Schaffrath.
**kern
*ICvox
*Ivox
*M4/4
*k[f#]
*G:
{4g
=1
4g
4dd
4dd
8ee
8gg
=2
4ffn
4ee
4dd
8r}
{8ee
=3
4ffn
4dd
4dd
8a
8b
=4
4cc
4b
4a
8r}
{8dd
=5
4dd
8dd
8b
4g
4b
=6
8dd
8cc
8cc
8b
4.a}
{8b
=7
4cc
8b
8a
4g
8f#
8g
=8
4.a
16b
16a
4g}
==
!!!AGN: erzaehlendes Volks - Lied, Sage, Familien - Geschichte
!!!ONB: ESAC (Essen Associative Code) Database: ERK1
!!!AMT: simple quadruple
!!!AIN: vox
!!!EED: Helmut Schaffrath
!!!EEV: 1.0
*-
